X:1
T:Salve Regina
T:Michael Haydn, edited Brian Marble
T:Salve Regina
T:T'Andernaken
T:T'Andernaken
T:T'Andernaken
T:T'Andernaken
C:Michael Haydn, edited Brian Marble
Z:T'Andernaken
%%score [ 1 2 3 4 ]
L:1/8
Q:1/4=80
M:2/2
K:Bb
V:1 treble nm="Violin" snm="Vln."
V:2 treble nm="Violin" snm="Vln."
V:3 treble-8 nm="Viola" snm="Vla."
V:4 bass nm="Violoncello" snm="Vc."
V:1
!f! d8 | !fermata!c8 |!p! B8 | !fermata!A8 |!f! (G4 g4) | f6 e2 | (d4 c4) | !fermata!B8 || %8
w: Sal-|ve,|sal-|ve,|sal- *|ve Re-|gi- *|na,|
!p! d2 dd (dc) (cB) | B3 F F2 z2 | z8 | z8 |!f! (e4 c2) A2 | f4 B4 | c8 | !fermata!B8 || %16
w: ma- ter mi- se- * ri- *|cor- di- ae|||et _ spes|no- stra,|sal-|ve.|
!f! d4 d3 d | e4 d2 (d2 | c3) B A2 (3GGG | B4 !fermata!A4 |!p! d3 d d2 d2 | e4 d2 z d | %22
w: Ad te cla-|ma- mus ex-|* su les, fi- li- i|E- vae.|Ad te sus- pi-|ra- mus, ge-|
 (c2 B2) A2 z2 | z4 z2!<(! F2 | G2 GG G2 G2!<)! |!>(! (G2 A2 B2 A2!>)! | G8) | %27
w: men- * tes|in|hac la- cri- ma- rum|val- * * *||
 !fermata!F4!f! c3 f | f2 c2!p! A3 c | c2 A2!f! f3 =e | f2 g2 (=e2 =B2) | !fermata!c4!f! c3 f | %32
w: le. E- ja|er- go, e- ja|er- go, ad- vo-|ca- ta no- *|stra, il- los|
 f2 c2!p! A3 c | c2 A2!f! _e2 ee | d3 c (B2 A)A | G4!p! e2 dc | (B4- BAdc) | !fermata!B4 z2!p! d2 | %38
w: tu- os, il- los|tu- os, mi- se- ri-|cor- des o- * cu-|los ad nos con-|ver- * * * *|te. Et|
 d2 B2 c2 e2 | d4 B2 z2 | A2 A2 B2 c2 | d4 c4 |!f! B4 d4 | B2 GG e>e dc | B2 d2- dcBc | %45
w: Je- sum be- ne-|dic- tum|fruc- tum ven- tris|tu- i,|no- bis|post hoc ex- si- li- um o-|sten- * * * * *|
 !fermata!B4!f! (f3 d) | B2 F2 z4 | z8 | z8 | z4!p!!<(! d4!<)! |!>(! (e3 d)!>)!!<(! c2 ^c2!<)! | %51
w: di, O _|cle- mens;|||O|dul- * cis, O|
!>(! (d3 =c)!>)! B2!<(! =B2 | (cd) (ed)!<)! (f!>(!e) dc!>)! | (B4- BAdc) | !fermata!B8 ||!f! (f8 | %56
w: dul- * cis, O|dul- * cis _ Vir- * go Ma-|ri- * * * *|a.|Sal-|
 =e4 _e4) | d8 | (cdef gd) ec | (B4 F4) | !fermata!D8 |] %61
w: |ve,|sal- * * * * * ve Re-|gi- *|na.|
V:2
 F8 | !fermata!F8 | D8 | !fermata!D8 | z4 E4 | F6 c2 | (B4 A4) | !fermata!B8 || F2 FF (FE) (ED) | %9
w: Sal-|ve,|sal-|ve,|sal-|ve Re-|gi- *|na,|ma- ter mi- se- * ri- *|
 D3 D D2 z2 |!p! F4 (FE) (ED) | D4 C2 z2 | F6 F2 | F4 D4 | E8 | !fermata!D8 || F4 F3 F | %17
w: cor- di- ae|vi- ta, _ dul- *|ce- do|et spes|no- stra,|sal-|ve.|Ad te cla-|
 F4 F2 F2- | F3 G F2 (3=EEE | G4 !fermata!F4 | F3 F F2 F2 | F4 F2 z B | (A2 G2) F2 z2 | z4 z2 F2 | %24
w: ma- mus ex-|* su les, fi- li- i|E- vae.|Ad te sus- pi-|ra- mus, ge-|men- * tes|in|
 F2 FF F2 F2 | (=E2 F2 G2 F2 | F4 =E4) | !fermata!F4 A3 A | A2 A2 F3 F | F2 F2 A3 B | A2 G4 (GF) | %31
w: hac la- cri- ma- rum|val- * * *||le. E- ja|er- go, e- ja|er- go, ad- vo-|ca- ta no- *|
 !fermata!=E4 A3 A | A2 A2 F3 F | F2 F2 c2 BA | F3 A G2 ^FF | G4 G2 FE | (D4 E4) | %37
w: stra, il- los|tu- os, il- los|tu- os, mi- se- ri-|cor- des o- * cu-|los ad nos con-|ver- *|
 !fermata!D4 z2 F2 | F2 D2 E2 G2 | F4 D2 z2 | F2 F2 F2 G2 | F4 A4 | G4 ^F4 | G2 GG G>G FE | %44
w: te. Et|Je- sum be- ne-|dic- tum|fruc- tum ven- tris|tu- i,|no- bis|post hoc ex- si- li- um o-|
 D2 F2- FEDE | !fermata!D4 z4 | z2 z!p! F (F2 G2) | !fermata!F4 z4 | z2 z!p! D (D2 E2) | %49
w: sten- * * * * *|di,|O cle- *|mens;|O pi- *|
 !fermata!D4 (F2 ^F2) | (G3 F) E2 =E2 | (F3 _E) D2 D2 | (EF) (GF) (AG) FE | (D4 E4) | %54
w: a O *|dul- * cis, O|dul- * cis, O|dul- * cis _ Vir- * go Ma-|ri- *|
 !fermata!D8 || (C8 | C4 F4) | F8 | G6 GG | (F4 C4) | !fermata!B,8 |] %61
w: a.|Sal-||ve,|sal- ve Re-|gi- *|na.|
V:3
 B8 | !fermata!A8 | G8 | !fermata!^F8 | G8 | B6 c2 | (d4 e4) | !fermata!d8 || z8 | z8 | %10
w: Sal-|ve,|sal-|ve,|sal-|ve Re-|gi- *|na,|||
 d4 (dc) (cB) | B4 A2 z2 | A6 B2 | B4 B4 | (G4 A4) | !fermata!F8 || B4 d3 d | c4 B2 (B2 | %18
w: vi- ta, _ dul- *|ce- do|et spes|no- stra,|sal- *|ve.|Ad te cla-|ma- mus ex-|
 A3) d c2 (3ccc | c4 !fermata!c4 | d3 d d2 d2 | c4 d2 z2 | z4 z2 z d | (c2 B2) A2 c2 | %24
w: * su les, fi- li- i|E- vae.|Ad te sus- pi-|ra- mus,|et|flen- * tes in|
 d2 dd d2 d2 | c8- | (c6 B2) | !fermata!A4 c3 c | c2 A2 A3 A | A2 F2 c3 c | c2 d2 (c2 =B2) | %31
w: hac la- cri- ma- rum|val-||le. E- ja|er- go, e- ja|er- go, ad- vo-|ca- ta no- *|
 !fermata!G4 c3 c | c2 A2 A3 A | A2 F2 A2 Bc | d3 e d3 c | B4 z4 | z2 B2 (c2 A2) | !fermata!F4 z4 | %38
w: stra, il- los|tu- os, il- los|tu- os, mi- se- ri-|cor- des o- cu-|los|con- ver- *|te.|
 z8 | z8 | c2 c2 B2 G2 | B4 A4 | B4 A4 | G2 GG G>E FG | (B4 A4) | !fermata!F4 z4 | %46
w: ||fruc- tum ven- tris|tu- i,|no- bis|post hoc ex- si- li- um o-|sten- *|di,|
 z2!p! z d (d2 e2) | !fermata!d4!f! (f3 d) | B2 F!p!F (F2 G2) | !fermata!F4 z4 | z8 | z8 | z8 | %53
w: O cle- *|mens; O _|pi- a, O pi- *|a||||
 z2 B2 (c2 A2) | !fermata!B8 || (A8 | B4 c4) | d8 | c6 cc | (d4 A4) | !fermata!F8 |] %61
w: Ma- ri- *|a.|Sal-||ve,|sal- ve Re-|gi- *|na.|
V:4
 B,8 | !fermata!F,8 | G,8 | !fermata!D,8 | E,8 | D,6 E,2 | F,8 | !fermata!B,,8 || z8 | z8 | %10
w: Sal-|ve,|sal-|ve,|sal-|ve Re-|gi-|na,|||
 z2 F,2 F,2 F,2 | F,4 F,2 z2 | F,6 E,2 | D,4 G,4 | (E,4 F,4) | !fermata!B,,8 || B,4 B,3 B, | %17
w: vi- ta, dul-|ce- do|et spes|no- stra,|sal- *|ve.|Ad te cla-|
 A,4 B,2 (B,2 | F,3) B,, C,2 (3C,C,C, | =E,4 !fermata!F,4 | B,3 B, B,2 B,2 | A,4 B,2 z2 | %22
w: ma- mus ex-|* su les, fi- li- i|E- vae.|Ad te sus- pi-|ra- mus,|
 z4 z2 z B, | (A,2 G,2) F,2 A,2 | B,2 B,B, =B,2 B,2 | C8- | (C4 C,4) | !fermata!F,4 F,3 F, | %28
w: et|flen- * tes in|hac la- cri- ma- rum|val-||le. E- ja|
 F,2 F,2 F,3 F, | F,2 F,2 F,3 G, | A,2 =B,2 (C2 G,2) | !fermata!C,4 F,3 F, | F,2 F,2 F,3 F, | %33
w: er- go, e- ja|er- go, ad- vo-|ca- ta no- *|stra, il- los|tu- os, il- los|
 F,2 F,2 F,2 G,A, | B,3 C D3 D, | E,4 C,2 D,E, | F,8 | !fermata!B,,4 z4 | z8 | z8 | %40
w: tu- os, mi- se- ri-|cor- des o- cu-|los ad nos con-|ver-|te.|||
 F,2 E,2 D,2 E,2 | F,4 F,4 | G,4 D,4 | E,2 E,E, C,>C, D,E, | F,8 | !fermata!B,,4 z4 | %46
w: fruc- tum ven- tris|tu- i,|no- bis|post hoc ex- si- li- um o-|sten-|di,|
 z2!p! z B, B,4 | !fermata!B,4 z4 | z2 z B,, B,,4 | !fermata!B,,4 z4 | z8 | z8 | z8 | z2 F,2 F,4 | %54
w: O cle-|mens;|O pi-|a||||Ma- ri-|
 !fermata!B,,8 || (F,8 | G,4 A,4) | B,8 | E,6 E,E, | (F,4 F,,4) | !fermata!B,,8 |] %61
w: a.|Sal-||ve,|sal- ve Re-|gi- *|na.|

